X:4
T:Acoustic Fiddler's Reel
R:reel
C:Bruce Osborne - Sept 2002
Z:abc by bosborne@kos.net
M:2/4
L:1/8
K:Amaj
C/B,/|A,C/D/ E/A,/C/E/|DF/A/ D/A/F/A/|EG/B/ E/B/G/B/|A/c/e/c/ f/c/e/c/|\
A,C/D/ E/A,/C/E/|DF/A/ D/A/F/A/|EG/B/ E/B/G/B/|A/c/B/G/ A:|
|:c/d/|e/c/B/A/ F/A/E/A/|C/E/A,/C/ E/A/f/c/|e/c/B/A/ E/F/A/c/|f/e/c/A/ Bc/d/|\
e/c/B/A/ F/A/E/A/|C/E/A,/C/ E/A/f/c/|e/c/B/A/ E/F/A/c/|B/A/G/B/ A:|
